X: 326
T: Qing ge
L: 1/8
M: 2/4
K: A
e2e f [I:setbarnb 1]| 
e2d e | 
B2A =G | 
E4 | 
A2G F | 
E2A B | 
e2d e | 
B2A F | 
E2A B | 
e2d e | 
B2A F | 
E2E A | 
B A G F | 
E4 |]

@@@ Tune index: 9200
